!!!!SEGMENT: pl-wumfc--n68232--020_moniuszko-stanislaw--paria-wyciag-fortepianowy-akt-ii-scena-vi-piesn.krn
!!!cenid: 18xx:4150
!!!COM: Moniuszko, Stanisław
!!!COM-rismID: pe30008351
!!!CDT: 1819/05/05-1872/06/04
!!!CNT: Polish
!!!GTL: Paria – wyciąg fortepianowy
!!!OTL: Akt II. Scena VI. Pieśń
!!!OMV: 020
!!!PDT:
!!!AGN:
!!!SMS-siglum: PL-Wumfc
!!!SMS-shelfmark: N68232
!!!SMS-shelfwork: 001-020 G
!!!SMS-variant:
!!!SMS-altvar:
!!!NIFC-rismSourceID: 1001171381
!!!NIFC-rismChildID: 1001171381
!!!NIFC-islandoraID: pl-wumfc:7210
!!!URL-pdf-islandora: https://repozytorium.nifc.pl/islandora/object/pl-wumfc%3A7210/datastream/PDF/view
!!!URL-scan: https://polish.musicsources.pl/pl/lokalizacje/galeria/druki-muzyczne/12634/1 @EN{Scan on Polish Music Sources Website} @PL{Skany w portalu Dziedzictwo Muzyki Polskiej w otwartym dostępie}
!!!IIIF:
!!!ONB-nifc: UWAGA: str. 73-75. Uwaga: proszę w pliku umieszczać obsadę, która występuje tylko w danej części.
!!!AIN: 2 piano 2 vox
!!!key:
**kern	**kern	**dynam	**kern	**text	**text	**dynam	**kern	**text	**text
*part4	*part3	*part3	*part2	*part2	*part2	*part2	*part1	*part1	*part1
*staff4	*staff3	*	*staff2	*staff2	*staff2	*	*staff1	*staff1	*staff1
*I"[Fortepian.]	*I"[Fortepian.]	*	*I"Dżares	*	*	*	*I"Neala. Neala.	*	*
*I'[pf]	*I'[pf]	*	*I'D. D.	*	*	*	*I'N. N.	*	*
*ICklav	*ICklav	*	*ICvox	*	*	*	*ICvox	*	*
*Ipiano	*Ipiano	*	*Ivox	*	*	*	*Ivox	*	*
*clefF4	*clefG2	*	*clefF4	*	*	*	*clefG2	*	*
*k[b-e-a-d-]	*k[b-e-a-d-]	*	*k[b-e-a-d-]	*	*	*	*k[b-e-a-d-]	*	*
*f:	*f:	*	*f:	*	*	*	*f:	*	*
*M4/4	*M4/4	*	*M4/4	*	*	*	*M4/4	*	*
*met(c)	*met(c)	*	*met(c)	*	*	*	*met(c)	*	*
=1	=1	=1	=1	=1	=1	=1	=1	=1	=1
!!LO:TX:t=P:problem: znaki przykluczowe tylko w pierwszym systemie: b- e- a- d- gn 	!	!	!	!	!	!	!	!	!
!	!LO:TX:a:B:t=Un poco più lento.	!	!	!	!	!	!	!	!
2.F\ 2.A-	4r	pp	1ryy	.	.	.	1ryy	.	.
!	!LO:TUP:a:problem:klamra łukowa	!	!	!	!	!	!	!	!
!	!LO:TX:i:a:t=con molto dolore	!	!	!	!	!	!	!	!
.	12c/L	pp	.	.	.	.	.	.	.
.	12B-/	.	.	.	.	.	.	.	.
.	12d-/J	.	.	.	.	.	.	.	.
.	[2c/	<	.	.	.	.	.	.	.
4F\ 4A-	.	.	.	.	.	.	.	.	.
=2	=2	=2	=2	=2	=2	=2	=2	=2	=2
2.E-\ 2.F 2.A-	8c/]	.	1ryy	.	.	.	1ryy	.	.
.	8r	.	.	.	.	.	.	.	.
!	!LO:TUP:a:problem:klamra łukowa	!	!	!	!	!	!	!	!
.	12c/L	.	.	.	.	.	.	.	.
.	12B-/	.	.	.	.	.	.	.	.
.	12d-/J	.	.	.	.	.	.	.	.
.	[2c/	[	.	.	.	.	.	.	.
4E-\ 4F 4A-	.	.	.	.	.	.	.	.	.
=3	=3	=3	=3	=3	=3	=3	=3	=3	=3
2.D-\ 2.F	8c/]	.	1ryy	.	.	.	1ryy	.	.
.	8r	.	.	.	.	.	.	.	.
!	!LO:TUP:a:problem:klamra łukowa	!	!	!	!	!	!	!	!
.	12B-/L	>	.	.	.	.	.	.	.
.	12An/	.	.	.	.	.	.	.	.
.	12c/J	.	.	.	.	.	.	.	.
.	[2B-/	]	.	.	.	.	.	.	.
4D-\ 4F	.	.	.	.	.	.	.	.	.
=4	=4	=4	=4	=4	=4	=4	=4	=4	=4
2.C\ 2.En 2.G	8B-/]	.	1ryy	.	.	.	1ryy	.	.
.	8r	.	.	.	.	.	.	.	.
!	!LO:TUP:a:problem:klamra łukowa	!	!	!	!	!	!	!	!
.	12B-/L	.	.	.	.	.	.	.	.
.	12An/	.	.	.	.	.	.	.	.
.	12c/J	.	.	.	.	.	.	.	.
.	(4..c/	.	.	.	.	.	.	.	.
4C\ 4E 4G	.	.	.	.	.	.	.	.	.
.	16B-/)	.	.	.	.	.	.	.	.
!!LO:LB:g=original	!	!	!	!	!	!	!	!	!
=5	=5	=5	=5	=5	=5	=5	=5	=5	=5
!	!LO:TX:a:t=(Dżares nie zważając na obecnych, idzie na przeód sceny.)	!	!	!	!	!	!	!	!
!	!LO:TX:a:i:t=(Djares, non badando agli astanti, si aranze direttamente vetro l'avanacena.)	!	!	!	!	!	!	!	!
2.D-\ 2.F	8B-/L	<	1ryy	.	.	.	1ryy	.	.
.	8A-X/	.	.	.	.	.	.	.	.
.	8B-/	.	.	.	.	.	.	.	.
.	8c/J	.	.	.	.	.	.	.	.
.	[<2d-^/	[	.	.	.	.	.	.	.
4D-\ 4F	.	.	.	.	.	.	.	.	.
=6	=6	=6	=6	=6	=6	=6	=6	=6	=6
2BB-\ 2D- 2G-X	8d-/L]	f	1ryy	.	.	.	1ryy	.	.
.	16r	.	.	.	.	.	.	.	.
.	16c/Jk	.	.	.	.	.	.	.	.
!	!LO:TX:i:b:t=rall.	!	!	!	!	!	!	!	!
.	[4e-^/	.	.	.	.	.	.	.	.
*	*Xtuplet	*	*	*	*	*	*	*	*
2r	12e-/L]	.	.	.	.	.	.	.	.
.	12d-^/	.	.	.	.	.	.	.	.
.	12B-^/J	.	.	.	.	.	.	.	.
*	*clefF4	*	*	*	*	*	*	*	*
.	12G-X^\L	.	.	.	.	.	.	.	.
.	12D-^\	.	.	.	.	.	.	.	.
.	12BB-^\J	.	.	.	.	.	.	.	.
=7	=7	=7	=7	=7	=7	=7	=7	=7	=7
2GG-X^/	1r	.	1ryy	.	.	.	1ryy	.	.
4FF^/	.	.	.	.	.	.	.	.	.
8.EEn^/L	.	.	.	.	.	.	.	.	.
16FF/Jk	.	.	.	.	.	.	.	.	.
=8	=8	=8	=8	=8	=8	=8	=8	=8	=8
8CC/L	4ryy	.	1ryy	.	.	.	1ryy	.	.
!LO:TX:t=P:problem: błąd wyświetlania VHV	!	!	!	!	!	!	!	!	!
N(16d->\L	.	.	.	.	.	.	.	.	.
16e->\JJ	.	.	.	.	.	.	.	.	.
8r	4.A-^\N)	<	.	.	.	.	.	.	.
8C\ 8F 8c	.	.	.	.	.	.	.	.	.
4.CC/	.	.	.	.	.	.	.	.	.
.	(16A-\LL	.	.	.	.	.	.	.	.
.	16B-\JJ	.	.	.	.	.	.	.	.
.	(4c^\)	[[	.	.	.	.	.	.	.
8C\ 8F 8A-	.	.	.	.	.	.	.	.	.
!!LO:LB:g=original	!	!	!	!	!	!	!	!	!
=9	=9	=9	=9	=9	=9	=9	=9	=9	=9
8CC^/	8e-\)	f	1ryy	.	.	.	1ryy	.	.
8r	4f^\	.	.	.	.	.	.	.	.
4r	.	.	.	.	.	.	.	.	.
.	([8d-\	>	.	.	.	.	.	.	.
2r	8d-\L]	.	.	.	.	.	.	.	.
.	8c\	.	.	.	.	.	.	.	.
.	8F^\)	.	.	.	.	.	.	.	.
.	16r	]	.	.	.	.	.	.	.
.	16A-\Jk	.	.	.	.	.	.	.	.
=10	=10	=10	=10	=10	=10	=10	=10	=10	=10
*	*^	*	*	*	*	*	*	*	*
2CC/ 2FF 2BBn	(4..A-/	2Dn\ 2F	fp	1ryy	.	.	.	1ryy	.	.
.	16G/	.	.	.	.	.	.	.	.	.
4FF/ 4C	8.A-^/L	4F^\	.	.	.	.	.	.	.	.
.	16G/K	.	.	.	.	.	.	.	.	.
4FF/ 4BB	8.A-^/	4D^\ 4F	.	.	.	.	.	.	.	.
.	16G/Jk)	.	.	.	.	.	.	.	.	.
=11	=11	=11	=11	=11	=11	=11	=11	=11	=11	=11
(2CC/ 2BB-X	8.B-/L	2D-X\ 2F	.	1ryy	.	.	.	1ryy	.	.
.	16c/Jk	.	.	.	.	.	.	.	.	.
.	2d-X^/	.	.	.	.	.	.	.	.	.
2CC/) 2GG 2C	.	2En\	.	.	.	.	.	.	.	.
.	8.E-X/L	.	pp	.	.	.	.	.	.	.
.	16c/Jk	.	.	.	.	.	.	.	.	.
*	*v	*v	*	*	*	*	*	*	*	*
=12||	=12||	=12||	=12||	=12||	=12||	=12||	=12||	=12||	=12||
*M3/8	*M3/8	*	*M3/8	*	*	*	*M3/8	*	*
!	!LO:TX:a:B:t=L'istesso tempo.	!	!	!	!	!	!	!	!
!	!LO:TX:a:t=A. V III.	!	!	!	!	!	!	!	!
4FF/	4.F\ 4.A- 4.c	pp	4.ryy	.	.	.	4.ryy	.	.
8r	.	.	.	.	.	.	.	.	.
=13	=13	=13	=13	=13	=13	=13	=13	=13	=13
4.r	4.F\ 4.A- 4.c	.	4.ryy	.	.	.	4.ryy	.	.
=14	=14	=14	=14	=14	=14	=14	=14	=14	=14
4.r	4.F\ 4.A- 4.c	.	4.ryy	.	.	.	4.ryy	.	.
!!LO:LB:g=original	!	!	!	!	!	!	!	!	!
=15	=15	=15	=15	=15	=15	=15	=15	=15	=15
!	!	!	!LO:TX:a:t=Dżares.	!	!	!	!	!	!
!	!	!	!LO:TX:a:i:t=Djares.	!	!	!	!	!	!
4.r	4.F\ 4.A- 4.c	.	8F\	Znam	M'e	.	4.ryy	.	.
.	.	.	8F\	gród	no-	.	.	.	.
.	.	.	8G\	wspa-	-taun'	.	.	.	.
=16	=16	=16	=16	=16	=16	=16	=16	=16	=16
4.r	4.F\ 4.A- 4.c	.	8A-\	-nia-	al-	.	4.ryy	.	.
.	.	.	8A-\	-ły,	-ma,	.	.	.	.
.	.	.	16r	.	.	.	.	.	.
.	.	.	16A-\	Naj-	ec-	.	.	.	.
=17	=17	=17	=17	=17	=17	=17	=17	=17	=17
4.r	4.F\ 4.A- 4.c	.	8A-\	-więk-	-cel-	.	4.ryy	.	.
.	.	.	8G\	-szy	-sa	.	.	.	.
.	.	.	8F\	on	cit-	.	.	.	.
=18	=18	=18	=18	=18	=18	=18	=18	=18	=18
4.r	4.F\ 4.A- 4.c	.	[4A-\	z miast,	-ta.	.	4.ryy	.	.
.	.	.	16A-\]	.	.	.	.	.	.
.	.	.	16r	.	.	.	.	.	.
=19	=19	=19	=19	=19	=19	=19	=19	=19	=19
4.r	4.F\ 4.A- 4.c	.	8F\	Gma-	Au-	.	4.ryy	.	.
.	.	.	8F\	-chy	-ste-	.	.	.	.
.	.	.	8G\	jak	-ra e	.	.	.	.
=20	=20	=20	=20	=20	=20	=20	=20	=20	=20
4.r	4.F\ 4.A- 4.c	.	8A-\	ska-	cal-	.	4.ryy	.	.
.	.	.	16A-\LL	-ły,	-ma,	.	.	.	.
.	.	.	16B-\JJ	.	.	.	.	.	.
.	.	.	(8c\	A	qual	.	.	.	.
!!LO:LB:g=original	!	!	!	!	!	!	!	!	!
=21	=21	=21	=21	=21	=21	=21	=21	=21	=21
4.r	4.F\ 4.A- 4.c	.	8c\)	.	.	.	4.ryy	.	.
.	.	.	8A-\	strze-	de-	.	.	.	.
.	.	.	8F\	-chy	-i-	.	.	.	.
=22	=22	=22	=22	=22	=22	=22	=22	=22	=22
4.r	4.F\ 4.G 4.c	.	4G\	z gwiazd	-ta.	.	4.ryy	.	.
.	.	.	8r	.	.	.	.	.	.
=23	=23	=23	=23	=23	=23	=23	=23	=23	=23
4.r	4.F\ 4.A- 4.c	.	8F\	Tam	Co-	.	4.ryy	.	.
.	.	.	8A-\	u-	-la	.	.	.	.
.	.	.	8B-\	-ko-	di	.	.	.	.
=24	=24	=24	=24	=24	=24	=24	=24	=24	=24
4.r	4.En\ 4.G 4.c	.	8.c\	-cha-	fron-	.	4.ryy	.	.
.	.	.	16c\	-ny	-de	.	.	.	.
.	.	.	8c\	Jest	s;in-	.	.	.	.
=25	=25	=25	=25	=25	=25	=25	=25	=25	=25
4.r	4.E-X\ 4.G-X 4.c	.	8c\	pa-	-nal-	.	4.ryy	.	.
.	.	.	8B-\	-łac	-za il	.	.	.	.
.	.	.	8An\	i	mio o-	.	.	.	.
=26	=26	=26	=26	=26	=26	=26	=26	=26	=26
4.r	4.Dn\ 4.F 4.B-	.	4.B-\	mój,	-stel,	.	4.ryy	.	.
=27	=27	=27	=27	=27	=27	=27	=27	=27	=27
4.r	4.D-X\ 4.F 4.B-	.	8F\	z kwia-	lo	.	4.ryy	.	.
.	.	.	8F\	-tów	spec-	.	.	.	.
.	.	.	8G\	ma	-chian	.	.	.	.
!!LO:PB:g=original	!	!	!	!	!	!	!	!	!
=28	=28	=28	=28	=28	=28	=28	=28	=28	=28
4.r	NN(4.C\ 4.F 4.A-	.	8A-\	ścia-	l'on-	.	4.ryy	.	.
.	.	.	16A-\LL	-ny,	-de	.	.	.	.
.	.	.	16G\JJ	.	.	.	.	.	.
.	.	.	[8F\	A	di	.	.	.	.
=29	=29	=29	=29	=29	=29	=29	=29	=29	=29
4.r	4.C\ 4.G 4.B-	.	8F\]	.	que-	.	4.ryy	.	.
.	.	.	8G\	w pro-	-to	.	.	.	.
.	.	.	8En\	-gu	ru-	.	.	.	.
=30	=30	=30	=30	=30	=30	=30	=30	=30	=30
*^	*	*	*	*	*	*	*	*	*
4A-/	(8F\L	8r	.	[4.c\	zdrój.	-seel.	.	4.ryy	.	.
.	8c\JNN))	8r	.	.	.	.	.	.	.	.
*	*	*clefG2	*	*	*	*	*	*	*	*
8r	8ryy	(8f/ 8a-	.	.	.	.	.	.	.	.
*v	*v	*	*	*	*	*	*	*	*	*
=31	=31	=31	=31	=31	=31	=31	=31	=31	=31
(8F^<\L	4e-X/ 4g	.	4.c\_	.	.	.	4.ryy	.	.
8c\J)	.	.	.	.	.	.	.	.	.
8r	8en/ 8b-	.	.	.	.	.	.	.	.
=32	=32	=32	=32	=32	=32	=32	=32	=32	=32
(8F^<\L	4f/) 4an	.	4.c\_	.	.	.	4.ryy	.	.
8c\J)	.	.	.	.	.	.	.	.	.
8r	(8f/ 8a-X	.	.	.	.	.	.	.	.
=33	=33	=33	=33	=33	=33	=33	=33	=33	=33
(8F^<\L	4en/ 4g	.	4c\]	.	.	.	4.ryy	.	.
8c\J)	.	.	.	.	.	.	.	.	.
8r	8g/) 8b-	.	8r	.	.	.	.	.	.
=34	=34	=34	=34	=34	=34	=34	=34	=34	=34
(8F^<\L	[4.f/ [4.a-	.	4.r	.	.	.	4.ryy	.	.
8c\J)	.	.	.	.	.	.	.	.	.
8r	.	.	.	.	.	.	.	.	.
=35	=35	=35	=35	=35	=35	=35	=35	=35	=35
(8F^<\L	4.f/_ 4.a-_	.	4.r	.	.	.	4.ryy	.	.
8c\J)	.	.	.	.	.	.	.	.	.
8r	.	.	.	.	.	.	.	.	.
!!LO:LB:g=original	!	!	!	!	!	!	!	!	!
=36	=36	=36	=36	=36	=36	=36	=36	=36	=36
(8F^<\L	4.f/_ 4.a-_	.	4.r	.	.	.	4.ryy	.	.
8c\J)	.	.	.	.	.	.	.	.	.
8r	.	.	.	.	.	.	.	.	.
=37	=37	=37	=37	=37	=37	=37	=37	=37	=37
(8F^<\L	4.f/] 4.a-]	.	8F\	Co	La	.	4.ryy	.	.
8c\J)	.	.	8F\	wio-	nel-	.	.	.	.
8r	.	.	8G\	-snę	-l'om-	.	.	.	.
=38	=38	=38	=38	=38	=38	=38	=38	=38	=38
(8F^<\L	4.f/ 4.a-	.	8.A-\	dzi-	-bro-	.	4.ryy	.	.
8c\J)	.	.	.	.	.	.	.	.	.
.	.	.	16A-\	-wi	-so,	.	.	.	.
8r	.	.	8A-\	Od-	mio	.	.	.	.
=39	=39	=39	=39	=39	=39	=39	=39	=39	=39
(8F^<\L	4.f/ 4.a-	.	8A-\	-mia-	bel	.	4.ryy	.	.
8d-\J)	.	.	8G\	-ną	ro-	.	.	.	.
8r	.	.	8F\	swych	-mi-	.	.	.	.
=40	=40	=40	=40	=40	=40	=40	=40	=40	=40
(8F^<\L	4.f/ 4.a-	.	4A-\	farb.	-tor	.	4.ryy	.	.
8c\J)	.	.	.	.	.	.	.	.	.
8r	.	.	8r	.	.	.	.	.	.
=41	=41	=41	=41	=41	=41	=41	=41	=41	=41
*	*^	*	*	*	*	*	*	*	*
(8F^<\L	(8a-/L	4.d-\	.	8F\	W nim	Ce-	.	4.ryy	.	.
8A-\J)	8f/	.	.	8F\	naj-	-lai	.	.	.	.
8r	8g/J)	.	.	8G\	-tro-	ge-	.	.	.	.
*	*v	*v	*	*	*	*	*	*	*	*
=42	=42	=42	=42	=42	=42	=42	=42	=42	=42
(8F^<\L	4.f/ 4.a-	.	8A-\	-skli-	-lo-	.	4.ryy	.	.
8c\J)	.	.	16A-\LL	-wiej	-so,	.	.	.	.
.	.	.	16B-\JJ	.	.	.	.	.	.
8r	.	.	[8c\	Cho-	ra-	.	.	.	.
!!LO:LB:g=original	!	!	!	!	!	!	!	!	!
=43	=43	=43	=43	=43	=43	=43	=43	=43	=43
(8F^<\L	4.dn/ 4.f	.	8c\]	.	.	.	4.ryy	.	.
8c\J)	.	.	8A-\	-wa-	-ro un	.	.	.	.
8r	.	.	8F\	-łem	te	.	.	.	.
=44	=44	=44	=44	=44	=44	=44	=44	=44	=44
(8F^<\L	4.en/ 4.g	.	4G\	skarb.	sor.	.	4.ryy	.	.
8c\J)	.	.	.	.	.	.	.	.	.
8r	.	.	8r	.	.	.	.	.	.
=45	=45	=45	=45	=45	=45	=45	=45	=45	=45
(8F^<\L	(>4.f/ 4.a-	.	8F\	Skarb	Me	.	4.ryy	.	.
8c\J)	.	.	8A-\	to	l'a-	.	.	.	.
8r	.	.	8B-\	mój	-vean	.	.	.	.
=46	=46	=46	=46	=46	=46	=46	=46	=46	=46
(8En^<\L	4.g/	.	8.c\	dro-	da-	.	4.ryy	.	.
8c\J)	.	.	.	.	.	.	.	.	.
.	.	.	16c\	-gi.	-to	.	.	.	.
8r	.	.	8c\	A	pro-	.	.	.	.
=47	=47	=47	=47	=47	=47	=47	=47	=47	=47
(8E-X^<\L	4.An/ 4.g-X	.	8c\	pię-	-pi-	.	4.ryy	.	.
8c\J)	.	.	8B-\	-kny	-zi	.	.	.	.
8r	.	.	8An\	jak	gli	.	.	.	.
=48	=48	=48	=48	=48	=48	=48	=48	=48	=48
(8Dn^<\L	4.B-/ 4.f	.	4.B-\	kwiat	dei,	.	4.ryy	.	.
8F\J)	.	.	.	.	.	.	.	.	.
8r	.	.	.	.	.	.	.	.	.
=49	=49	=49	=49	=49	=49	=49	=49	=49	=49
(8D-X^<\L	4.Bn/) 4.f	.	8F\	Da-	Mi	.	4.ryy	.	.
8F\J)	.	.	8F\	-ły	fu in-	.	.	.	.
8r	.	.	8G\	go	-vo	.	.	.	.
!!LO:LB:g=original	!	!	!	!	!	!	!	!	!
=50	=50	=50	=50	=50	=50	=50	=50	=50	=50
*^	*	*	*	*	*	*	*	*	*
(8C^</L	4.C\	(4c/ 4a-	.	8A-\	bo-	la-	.	4.ryy	.	.
8F/	.	.	.	16A-\LL	-gi,	-to,	.	.	.	.
.	.	.	.	16G\JJ	.	.	.	.	.	.
8A-/J)	.	8f/)	.	[8F\	O-	Io	.	.	.	.
*v	*v	*	*	*	*	*	*	*	*	*
=51	=51	=51	=51	=51	=51	=51	=51	=51	=51
*	*^	*	*	*	*	*	*	*	*
4.C\ 4.G	(4cc/	8f\L	.	8F\]	.	.	.	4.ryy	.	.
.	.	8dn\	.	8G\	-de-	lo	.	.	.	.
.	8b-/	8en\J	.	8E-\	-brał	per-	.	.	.	.
*	*v	*v	*	*	*	*	*	*	*	*
=52	=52	=52	=52	=52	=52	=52	=52	=52	=52
(8F\L	4.f/) 4.a-	.	4F\	swiat.	-dei.	.	4.ryy	.	.
8c\J)	.	.	.	.	.	.	.	.	.
8r	.	.	8r	.	.	.	.	.	.
=53	=53	=53	=53	=53	=53	=53	=53	=53	=53
*	*^	*	*	*	*	*	*	*	*
!	!	!LO:N:vis=8.	!	!	!	!	!	!	!	!
(>4.FF/ 4.C 4.F	(4.a-/	(8A-\L	.	8F\	Skarb	Me	.	4.ryy	.	.
.	.	8c\J)	.	8A-\	to	l'a-	.	.	.	.
.	.	8rd	.	8B-\	mój	-vean	.	.	.	.
=54	=54	=54	=54	=54	=54	=54	=54	=54	=54	=54
!	!	!LO:N:vis=8.	!	!	!	!	!	!	!	!
4.EEn/ 4.C 4.En	4.g/	(8G\L	.	8c\	dro-	da-	.	4.ryy	.	.
.	.	8c\J)	.	16c\LL	-gi	-to	.	.	.	.
.	.	.	.	16d-\JJ	.	.	.	.	.	.
.	.	8rd	.	8c\	A	pro-	.	.	.	.
=55	=55	=55	=55	=55	=55	=55	=55	=55	=55	=55
!	!	!LO:N:vis=8.	!	!	!	!	!	!	!	!
4.EE-X/ 4.C 4.E-X	4.g-X/	(8An\L	.	8.e-\	pię-	-di-	.	4.ryy	.	.
.	.	8c\J)	.	.	.	.	.	.	.	.
.	.	.	.	16d-\	-kny	-zi	.	.	.	.
.	.	8rd	.	8c\	jak	gli	.	.	.	.
=56	=56	=56	=56	=56	=56	=56	=56	=56	=56	=56
4.DDn/ 4.Dn	4.f/)	(8F\L	.	(4.f\	kwiat,	dei,	.	4.ryy	.	.
.	.	8B-\J)	.	.	.	.	.	.	.	.
.	.	8rd	.	.	.	.	.	.	.	.
!!LO:PB:g=original	!	!	!	!	!	!	!	!	!	!
=57	=57	=57	=57	=57	=57	=57	=57	=57	=57	=57
4.DD-X/ 4.D-X	4.A-/ 4.f	(8F\L	.	8f\)	.	.	.	4.ryy	.	.
.	.	8Bn\J)	.	8F\	Da-	Fu in-	.	.	.	.
.	.	8rc	.	8G\	-ły	-vo-	.	.	.	.
*	*v	*v	*	*	*	*	*	*	*	*
=58	=58	=58	=58	=58	=58	=58	=58	=58	=58
8CC/L) 8C	4.A-/ 4.c 4.f	.	8.A-\	bo-	-la-	.	4.ryy	.	.
8C/J	.	.	.	.	.	.	.	.	.
.	.	.	16G\	-gi,	-to.	.	.	.	.
8r	.	.	[8F\	O-	Io	.	.	.	.
=59	=59	=59	=59	=59	=59	=59	=59	=59	=59
(8CC/L	4.G/ 4.B- 4.c	.	8F\]	.	.	.	4.ryy	.	.
!	!	!	!LO:TX:a:i:t=rall.	!	!	!	!	!	!
8C/J)	.	.	8.G\	-de-	lo	.	.	.	.
8r;	.	.	.	.	.	.	.	.	.
.	.	.	16En\	-brał	per-	.	.	.	.
=60	=60	=60	=60	=60	=60	=60	=60	=60	=60
*^	*^	*	*	*	*	*	*	*	*
(4FF/	4.FF\	8r	4A-\ 4c	.	[4.F\	świat.	-dei.	.	4.ryy	.	.
!	!	!LO:TX:a:t=Fl. e V.I.	!	!	!	!	!	!	!	!	!
.	.	(16f/LL	.	.	.	.	.	.	.	.	.
.	.	16g/J	.	.	.	.	.	.	.	.	.
8BB-/	.	8f/J	8B-\ 8d-	.	.	.	.	.	.	.	.
=61	=61	=61	=61	=61	=61	=61	=61	=61	=61	=61	=61
4FF/	4.FF\	8f/L)	4c\ 4e-	.	4.F\_	.	.	.	4.ryy	.	.
.	.	(16f/L	.	.	.	.	.	.	.	.	.
.	.	16g/J	.	.	.	.	.	.	.	.	.
8BB-/	.	[8f/J	8B-\ 8d-	.	.	.	.	.	.	.	.
=62	=62	=62	=62	=62	=62	=62	=62	=62	=62	=62	=62
!	!	!LO:TX:t=(spostrzega obecnych)	!	!	!	!	!	!	!	!	!
!	!	!LO:TX:i:t=(accorgendosi dei presenti)	!	!	!	!	!	!	!	!	!
4FF/	4.FF\	8f/L])	4A-\ 4c	.	4F\]	.	.	.	4.ryy	.	.
.	.	(16f/L	.	.	.	.	.	.	.	.	.
.	.	16g/J	.	.	.	.	.	.	.	.	.
8BB-/	.	[8f/J	8B-\ 8d-	.	8r	.	.	.	.	.	.
=63	=63	=63	=63	=63	=63	=63	=63	=63	=63	=63	=63
4FF/	4.FF\	8f/L])	4c\ 4e-	.	4.r	.	.	.	4.ryy	.	.
.	.	16f/L	.	.	.	.	.	.	.	.	.
.	.	16g/J	.	.	.	.	.	.	.	.	.
8BB-/)	.	8f/J	8B-\ 8d-	.	.	.	.	.	.	.	.
*v	*v	*	*	*	*	*	*	*	*	*	*
*	*v	*v	*	*	*	*	*	*	*	*
!!LO:LB:g=original	!	!	!	!	!	!	!	!	!
!!LO:REH:t=81
=64||	=64||	=64||	=64||	=64||	=64||	=64||	=64||	=64||	=64||
*M4/4	*M4/4	*	*M4/4	*	*	*	*M4/4	*	*
*met(c)	*met(c)	*	*met(c)	*	*	*	*met(c)	*	*
!LO:TX:t=P:problem: rehersal mark without box	!	!	!LO:TX:a:B:t=Moderato.	!	!	!	!	!	!
2FF/ 2F	2A-/ 2c 2f	<	2r	.	.	.	1ryy	.	.
2EE-/ 2E-	2B-/ 2d- 2g	[ > ]]	8r	.	.	.	.	.	.
.	.	.	8E-\	Ka-	Sa-	.	.	.	.
.	.	.	8F\	-płan-	-cer-	.	.	.	.
.	.	.	8G\	-ki	-do-	.	.	.	.
=65	=65	=65	=65	=65	=65	=65	=65	=65	=65
*	*^	*	*	*	*	*	*	*	*
1AA- 1E-	(2.a-/	2c\	pp	4.A-\	świą-	-tes-	.	1ryy	.	.
.	.	.	.	8A-\	-tyń	-se	.	.	.	.
.	.	2d-\	.	8.B-\	i	del-	.	.	.	.
.	.	.	.	16A-\	świę-	-l'au-	.	.	.	.
.	4g/)	.	.	8B-\	-co-	-gu-	.	.	.	.
.	.	.	.	8c\	-nych	-sto	.	.	.	.
=66	=66	=66	=66	=66	=66	=66	=66	=66	=66	=66
1AA- 1E-	(2e-/	1c	.	4B-\	ga-	tem-	.	1ryy	.	.
.	.	.	.	8A-\	-jów	-pio,	.	.	.	.
.	.	.	.	8r	.	.	.	.	.	.
.	2a-/)	.	.	4A-\	Bo-	de-	.	.	.	.
.	.	.	.	8B-\	-skich	-gne	.	.	.	.
.	.	.	.	8c\	na-	cu-	.	.	.	.
=67	=67	=67	=67	=67	=67	=67	=67	=67	=67	=67
*^	*	*	*	*	*	*	*	*	*	*
(2A-/	1AA-	(2f/	1d-	.	4.d-\	-mio-	-sto-	.	1ryy	.	.
.	.	.	.	.	8A-\	-tów	-di	.	.	.	.
2F/)	.	2a-/)	.	.	8F\	śród	dei	.	.	.	.
.	.	.	.	.	8G\	pa-	di-	.	.	.	.
.	.	.	.	.	8A-\	-lą-	-vi-	.	.	.	.
.	.	.	.	.	8B-\	-cych	-ni al-	.	.	.	.
*v	*v	*	*	*	*	*	*	*	*	*	*
!!LO:LB:g=original	!	!	!	!	!	!	!	!	!	!
=68	=68	=68	=68	=68	=68	=68	=68	=68	=68	=68
2A-\	(2a-/ 2cc	1e-	.	4c\	stref.	-tar,	.	1ryy	.	.
.	.	.	.	4r	.	.	.	.	.	.
2E-\	2g-X/) 2b-	.	.	4e-^\	Nie	Con-	.	.	.	.
.	.	.	.	8d-\	znam	-ce-	.	.	.	.
.	.	.	.	8c\	na	-der	.	.	.	.
=69	=69	=69	=69	=69	=69	=69	=69	=69	=69	=69
(2G-X\	(2g-X/ 2b-	1d-	.	4B-\	zie-	puo	.	1ryy	.	.
.	.	.	.	8B-\	-mi	vo-	.	.	.	.
.	.	.	.	8B-\	ni	-stra	.	.	.	.
2D-\)	2f/) 2a-	.	.	4d-\	wa-	leg-	.	.	.	.
.	.	.	.	8c\	-szych	-ge a u-	.	.	.	.
.	.	.	.	8B-\	zwy-	-no	.	.	.	.
*	*v	*v	*	*	*	*	*	*	*	*
=70	=70	=70	=70	=70	=70	=70	=70	=70	=70
2F\	2c/ 2f 2a-	.	4A-\	-cza-	seem-	.	1ryy	.	.
.	.	.	8A-\	-jów	-pio	.	.	.	.
.	.	.	8r	.	.	.	.	.	.
!	!	!	!	!	!	!LO:DY:a	!	!	!
2AA-/	2c/ 2e- 2a-	.	4c\	wol-	fra	p	.	.	.
.	.	.	8A-\	-noż	l'om-	.	.	.	.
.	.	.	8G\	mi	-bre	.	.	.	.
!!LO:LB:g=original	!	!	!	!	!	!	!	!	!
=71	=71	=71	=71	=71	=71	=71	=71	=71	=71
1D- 1A-	1Bn 1f	.	4F\	spo-	sa-	.	1ryy	.	.
.	.	.	8F\	-cząć	-cre ar-	.	.	.	.
.	.	.	8F\	pod	-re-	.	.	.	.
.	.	.	8G\L	cie-	-star-	.	.	.	.
.	.	.	8F\J	.	.	.	.	.	.
.	.	.	8En\	-niem	-si e	.	.	.	.
.	.	.	8F\	tych	po-	.	.	.	.
=72	=72	=72	=72	=72	=72	=72	=72	=72	=72
*^	*^	*	*	*	*	*	*	*	*
8.D-/L	&(1FF^> 1F	1g	[2B-X\	.	2G\	drzew?	-sar?	.	1ryy	.	.
16C/K	.	.	.	.	.	.	.	.	.	.	.
8.BB-/	.	.	.	.	.	.	.	.	.	.	.
16C/Jk	.	.	.	.	.	.	.	.	.	.	.
2D-/	.	.	8.B-\L]	.	2r	.	.	.	.	.	.
.	.	.	16An\K	.	.	.	.	.	.	.	.
.	.	.	8.B-\	.	.	.	.	.	.	.	.
.	.	.	16c\Jk	.	.	.	.	.	.	.	.
*v	*v	*	*	*	*	*	*	*	*	*	*
*	*v	*v	*	*	*	*	*	*	*	*
=73	=73	=73	=73	=73	=73	=73	=73	=73	=73
!	!	!	!LO:TX:a:t=Neala.	!	!	!	!	!	!
!	!	!	!LO:TX:a:i:t=Neala. 	!	!	!	!	!	!
!	!	!	!LO:TX:a:B:t=Recit.	!	!	!	!	!	!
4EE-/&)	4B-/ 4d- 4g	.	4r	.	.	.	1ryy	.	.
*	*	*	*clefG2	*	*	*	*	*	*
4r	4r	.	8r	.	.	.	.	.	.
.	.	.	8b-\	Od-	Ki-	.	.	.	.
!	!LO:TX:b:B:t=Recit.	!	!	!	!	!	!	!	!
2r	2r	.	4b-\	-pocz-	-ma-	.	.	.	.
.	.	.	8e-/	-nij!	-ni.	.	.	.	.
.	.	.	8r	.	.	.	.	.	.
=74	=74	=74	=74	=74	=74	=74	=74	=74	=74
1r	1r	.	4ee-\	Tu-	A	.	1ryy	.	.
.	.	.	8b-\	-taj,	no-	.	.	.	.
.	.	.	8b-\	gdzie	-stre	.	.	.	.
.	.	.	4b-\	rzu-	cu-	.	.	.	.
.	.	.	8a-/	-cisz	-re	.	.	.	.
.	.	.	8b-\	o	t'af	.	.	.	.
!!LO:PB:g=original	!	!	!	!	!	!	!	!	!
=75	=75	=75	=75	=75	=75	=75	=75	=75	=75
1r	1r	.	1ryy	.	.	.	4a-/	czy-	fi-
.	.	.	.	.	.	.	4g/	-ma.	-da.
.	.	.	.	.	.	.	8r	.	.
.	.	.	.	.	.	.	8g/	Przy-	Qui o-
.	.	.	.	.	.	.	8b-\	-jaz-	-gnun
.	.	.	.	.	.	.	8dd-\	-nej	a
=76	=76	=76	=76	=76	=76	=76	=76	=76	=76
1r	1r	.	1ryy	.	.	.	(4ff\	doj-	te
.	.	.	.	.	.	.	8ee-\)	.	.
.	.	.	.	.	.	.	8dd-\	-rzysz	ri-
.	.	.	.	.	.	.	8.cc\	go-	-guar-
.	.	.	.	.	.	.	32b-\LLL	-ścin-	-do ac-
.	.	.	.	.	.	.	32cc\JJJ	.	.
.	.	.	.	.	.	.	8.dd-\	-no-	-cor-
.	.	.	.	.	.	.	16b-\	-ści	-de-
=77	=77	=77	=77	=77	=77	=77	=77	=77	=77
*^	*	*	*	*	*	*	*	*	*
1A-	(2.AA-\	2.c/ 2.e-	.	1ryy	.	.	.	8cc\	znak.	-ra.
.	.	.	.	.	.	.	.	8r	.	.
.	.	.	.	.	.	.	.	2ee-\	U-	Sie-
.	&(4C\)	(>4e-/ 4a-	.	.	.	.	.	4a-/	-siądź.	-di
=78	=78	=78	=78	=78	=78	=78	=78	=78	=78	=78
*	*	*^	*	*	*	*	*	*	*	*
!	!	!LO:TX:a:t=(Dżares siada,	!	!	!	!	!	!	!	!	!
!	!	!LO:TX:a:i:t=(Djares siede)	!	!	!	!	!	!	!	!	!
2.A-/	4D-\	4d-/ 4f	4ryy	.	1ryy	.	.	.	1r	.	.
.	4C\	4e-/ 4a-	4ryy	.	.	.	.	.	.	.	.
.	4BB-\	4.dd-/	4f\	.	.	.	.	.	.	.	.
4E-/	4E-\	.	4g\	.	.	.	.	.	.	.	.
.	.	16cc/LL	.	.	.	.	.	.	.	.	.
.	.	16b-/JJ	.	.	.	.	.	.	.	.	.
*v	*v	*	*	*	*	*	*	*	*	*	*
=79	=79	=79	=79	=79	=79	=79	=79	=79	=79	=79
4A-\	4cc/	1e-	.	1ryy	.	.	.	1r	.	.
4G\ 4B-	4ee-/	.	.	.	.	.	.	.	.	.
4F\ 4c	4a-/	.	.	.	.	.	.	.	.	.
4E-\ 4A-	4cc/	.	.	.	.	.	.	.	.	.
!!LO:LB:g=original	!	!	!	!	!	!	!	!	!	!
=80	=80	=80	=80	=80	=80	=80	=80	=80	=80	=80
2Dn\&) 2A-	2b-/)	2f\	.	1ryy	.	.	.	2r	.	.
!	!LO:TX:b:B:t=Recit.	!	!	!	!	!	!	!	!	!
2r	2r	2ryy	.	.	.	.	.	4r	.	.
!	!	!	!	!	!	!	!	!LO:TX:a:B:t=Recit.	!	!
.	.	.	.	.	.	.	.	8b-\	Po-	Vo-
.	.	.	.	.	.	.	.	8b-\	-boż-	-to
*	*v	*v	*	*	*	*	*	*	*	*
=81	=81	=81	=81	=81	=81	=81	=81	=81	=81
1r	1r	.	1ryy	.	.	.	4b-\	-ne-	pio,
.	.	.	.	.	.	.	8f/	-go	pel-
.	.	.	.	.	.	.	8f/	znać	-le-
.	.	.	.	.	.	.	4f/	w to-	-grin,
.	.	.	.	.	.	.	8g/	-bie	qui
.	.	.	.	.	.	.	8a-/	piel-	ti
=82	=82	=82	=82	=82	=82	=82	=82	=82	=82
1r	1r	.	1ryy	.	.	.	4cc\	-grzy-	gui-
.	.	.	.	.	.	.	8b-\	-ma.	-da?
.	.	.	.	.	.	.	8r	.	.
*	*	*	*	*	*	*	*clefF4	*	*
!	!	!	!	!	!	!	!LO:TX:a:t=Dżares.	!	!
!	!	!	!	!	!	!	!LO:TX:a:i:t=Djares.	!	!
.	.	.	.	.	.	.	2B-\	We	Pi-
=83	=83	=83	=83	=83	=83	=83	=83	=83	=83
1r	1r	.	1ryy	.	.	.	8F\	mnie?	-o.
.	.	.	.	.	.	.	8r	.	.
.	.	.	.	.	.	.	8r	.	.
*	*	*	*	*	*	*	*clefG2	*	*
!	!	!	!	!	!	!	!LO:TX:a:t=Neala.	!	!
!	!	!	!	!	!	!	!LO:TX:a:i:t=Neala.	!	!
.	.	.	.	.	.	.	8b-\	Przy-	Da
.	.	.	.	.	.	.	4a-/	-by-	lun-
.	.	.	.	.	.	.	8g/	-wasz	-ge
.	.	.	.	.	.	.	8f/	z da-	pro
!!LO:LB:g=original	!	!	!	!	!	!	!	!	!
=84	=84	=84	=84	=84	=84	=84	=84	=84	=84
1r	4r	.	1ryy	.	.	.	8a-/	-le-	vie-
.	.	.	.	.	.	.	8g/	-ka?	-ni?
.	4B-/ 4e- 4g	p	.	.	.	.	8r	.	.
*	*	*	*	*	*	*	*clefF4	*	*
!	!	!	!	!	!	!	!LO:TX:a:t=Dżares.	!	!
!	!	!	!	!	!	!	!LO:TX:a:i:t=Djares.	!	!
.	.	.	.	.	.	.	8B-\	O	Oh
.	2r	.	.	.	.	.	4E-\	tak!	si!
.	.	.	.	.	.	.	4r	.	.
=85	=85	=85	=85	=85	=85	=85	=85	=85	=85
1r	1r	.	1ryy	.	.	.	4.B-\	z bar-	Ven-
.	.	.	.	.	.	.	8B-\	-dzo,	-go
.	.	.	.	.	.	.	4B-\	bar-	da
.	.	.	.	.	.	.	8.B-\	-dzo	lun-
.	.	.	.	.	.	.	16B-\	da-	-ge as-
=86	=86	=86	=86	=86	=86	=86	=86	=86	=86
1r	1r	.	1ryy	.	.	.	2c\	-le-	-sa-
.	.	.	.	.	.	.	4B-\	-ka.	-i.
*	*	*	*	*	*	*	*clefG2	*	*
!	!	!	!	!	!	!	!LO:TX:a:t=Neala.	!	!
!	!	!	!	!	!	!	!LO:TX:a:i:t=Neala.	!	!
.	.	.	.	.	.	.	8b-\	I	Bra-
.	.	.	.	.	.	.	8cc\	chcesz	-mi
=87	=87	=87	=87	=87	=87	=87	=87	=87	=87
1r	1r	.	1ryy	.	.	.	8dd-\	zwie-	ri-
.	.	.	.	.	.	.	8dd-\	-dzić	-ve-
.	.	.	.	.	.	.	4.dd-\	gro-	-rir
.	.	.	.	.	.	.	8b-\	-by	de'
.	.	.	.	.	.	.	8g/	na-	no-
.	.	.	.	.	.	.	8f/	-szych	-stri
!!LO:LB:g=original	!	!	!	!	!	!	!	!	!
=88	=88	=88	=88	=88	=88	=88	=88	=88	=88
1C 1G	1B- 1en	pp	1ryy	.	.	.	4en/	świę-	san-
.	.	.	.	.	.	.	8g/	-tych	-ti i
.	.	.	.	.	.	.	8g/	Co	se-
.	.	.	.	.	.	.	8cc\	tu-	-pol-
.	.	.	.	.	.	.	8b-\	-taj	-cri
.	.	.	.	.	.	.	8a-/	spo-	ve-
.	.	.	.	.	.	.	8g/	-czy-	-ne-
=89	=89	=89	=89	=89	=89	=89	=89	=89	=89
4FF/ 4F	4A-/ 4f	.	1ryy	.	.	.	8b-\	-wa-	-ra-
.	.	.	.	.	.	.	8a-/	-ją?	-ti?
*	*	*	*	*	*	*	*clefF4	*	*
!LO:TX:a:t=Arm.	!	!	!	!	!	!	!LO:TX:a:t=Dżares.	!	!
!	!	!	!	!	!	!	!LO:TX:a:i:t=Dżares.	!	!
2BBn\ 2Dn 2F	4ryy	fpp	.	.	.	.	4A-\	Nie.	No.
*	*	*	*	*	*	*	*clefG2	*	*
!	!	!	!	!	!	!	!LO:TX:a:t=Neala	!	!
!	!	!	!	!	!	!	!LO:TX:a:i:t=Neala.	!	!
.	2ryy	.	.	.	.	.	4a-/	Do-	Qual
4r	.	.	.	.	.	.	8a-/	-kąd-	dun-
.	.	.	.	.	.	.	8a-/	-że	-que hai
=90	=90	=90	=90	=90	=90	=90	=90	=90	=90
1r	1r	.	1ryy	.	.	.	2a-/	dą-	-me-
.	.	.	.	.	.	.	4B-/ 4f	-żysz?	-ta?
*	*	*	*	*	*	*	*clefF4	*	*
!	!	!	!	!	!	!	!LO:TX:a:t=Dżares.	!	!
!	!	!	!	!	!	!	!LO:TX:a:i:t=Dżares.	!	!
.	.	.	.	.	.	.	4F\	Od	Co-
!!LO:REH:t=82
=91	=91	=91	=91	=91	=91	=91	=91	=91	=91
*^	*^	*	*	*	*	*	*	*	*
!	!	!	!	!	!	!	!	!	!LO:TX:a:B:t=Molto lento.	!	!
!	!	!	!	!	!	!	!	!	!LO:TX:a:i:t=a tempo	!	!
(4F/	(2C\	(4c/	4A-\	<	1ryy	.	.	.	4A-\	do-	-stan-
8G/L	.	8en/L	4B-\	.	.	.	.	.	8G\	-by	-te o-
8c/J	.	8g/J	.	.	.	.	.	.	8En\	do	-gni
4c/)	4F\)	4.a-/	2A-\	[ >	.	.	.	.	4.F\	do-	di
4rB	(8.C\L	.	.	.	.	.	.	.	.	.	.
.	.	8f/)	.	.	.	.	.	.	8A-\	-by	ri
.	16D-\Jk	.	.	]]	.	.	.	.	.	.	.
*	*	*	*	*	*clefF4	*	*	*	*	*	*
!!LO:PB:g=original	!	!	!	!	!	!	!	!	!	!	!
=92	=92	=92	=92	=92	=92	=92	=92	=92	=92	=92	=92
2ryy	2E-\)	4e-/	4c\	.	8.c\	i-	pren-	.	1ryy	.	.
.	.	.	.	.	16c\	-dę	-do il	.	.	.	.
.	.	(8g/L	4d-\	.	8B-\	w cią-	mio	.	.	.	.
.	.	8b-/J	.	.	8G\	-głą	cam-	.	.	.	.
(8E-/L	2AA-\	4.cc/)	2c\	.	4A-\	dal,	-min.	.	.	.	.
8F/	.	.	.	.	.	.	.	.	.	.	.
8G/	.	.	.	.	8r	.	.	.	.	.	.
8A-/J)	.	8cc/	.	.	8c\	Wiem	Del	.	.	.	.
=93	=93	=93	=93	=93	=93	=93	=93	=93	=93	=93	=93
2ryy	2E-\	(4cc/	2c\ 2g	.	4c\	po	viag-	.	1ryy	.	.
.	.	4g/)	.	.	8G\	co	-gio	.	.	.	.
.	.	.	.	.	8G\	tak	che im-	.	.	.	.
2F/	2Dn\	2b-/	2f/	.	4.B-\	i-	-pre-	.	.	.	.
.	.	.	.	.	16A-\LL	-dę,	-si	.	.	.	.
.	.	.	.	.	16G\JJ	.	.	.	.	.	.
*v	*v	*	*	*	*	*	*	*	*	*	*
=94	=94	=94	=94	=94	=94	=94	=94	=94	=94	=94
!	!	!	!	!	!	!	!LO:DY:a	!	!	!
[1D-X [1F	[2f/	2A-\	pp	8F\	a-	e	pp	1ryy	.	.
.	.	.	.	8G\	-le	pur	.	.	.	.
.	.	.	.	8.A-\	nie	lun-	.	.	.	.
.	.	.	.	16En\	wiem	-ge il	.	.	.	.
!	!	!	!LO:HP:a	!	!	!	!	!	!	!
.	(8f/L]	2B-\	<	[4F\	gdzie?	fin.	.	.	.	.
.	8g/	.	.	.	.	.	.	.	.	.
!	!	!	!LO:HP:a	!	!	!	!	!	!	!
.	8a-/	.	[ >	8F\]	.	.	.	.	.	.
.	8en/J)	.	]]	8r	.	.	.	.	.	.
=95	=95	=95	=95	=95	=95	=95	=95	=95	=95	=95
8D-\] 8F]	8f/	8Bn\	.	8r	.	.	.	1ryy	.	.
!	!	!	!	!	!	!	!LO:DY:a	!	!	!
8r	8r	8ryy	.	16A-\	a-	E	<	.	.	.
.	.	.	.	16B-\	-le	pur	.	.	.	.
2C/	2ryy	2A-^/ 2c 2f	.	2c\	nie	lun-	[	.	.	.
(8.C/L	4ryy	4B/ 4en 4g	.	4G\	wiem	-ge il	.	.	.	.
16FF/Jk)	.	.	.	.	.	.	.	.	.	.
*	*v	*v	*	*	*	*	*	*	*	*
!!LO:LB:g=original	!	!	!	!	!	!	!	!	!
=96	=96	=96	=96	=96	=96	=96	=96	=96	=96
2FF/ 2C	2A-/ 2f 2a-	.	4A-\	gdzie?	fin.	.	1ryy	.	.
!	!	!	!LO:TX:a:B:t=Recit.	!	!	!	!	!	!
.	.	.	8r	.	.	.	.	.	.
*	*	*	*clefG2	*	*	*	*	*	*
!	!	!	!LO:TX:a:t=Neala.	!	!	!	!	!	!
!	!	!	!LO:TX:a:i:t=Neala.	!	!	!	!	!	!
.	.	.	8a-/	Któż	Chi	.	.	.	.
!	!LO:TX:b:B:t=Recit.	!	!	!	!	!	!	!	!
2r	2r	.	4cc\	jes-	sei	.	.	.	.
.	.	.	8a-/	-teś?	tu?	.	.	.	.
.	.	.	8r	.	.	.	.	.	.
*	*	*	*clefF4	*	*	*	*	*	*
=97	=97	=97	=97	=97	=97	=97	=97	=97	=97
!	!	!	!LO:TX:a:t=Dżares.	!	!	!	!	!	!
!	!	!	!LO:TX:a:i:t=Dżares.	!	!	!	!	!	!
1r	1r	.	4.F\	Ob-	Stra-	.	1ryy	.	.
.	.	.	8F\	-cy	-nio	.	.	.	.
.	.	.	8F\	na	fra-	.	.	.	.
.	.	.	8F\	tym	-gli a-	.	.	.	.
.	.	.	8F\	wiel-	-gia-	.	.	.	.
.	.	.	8G\	-kim	-ti e i	.	.	.	.
=98	=98	=98	=98	=98	=98	=98	=98	=98	=98
1r	1r	.	4B-\	świe-	for-	.	1ryy	.	.
.	.	.	4A-\	-cie,	-ti.	.	.	.	.
.	.	.	8r	.	.	.	.	.	.
.	.	.	8A-\	Nie-	Dap-	.	.	.	.
.	.	.	8A-\	-go-	-poi	.	.	.	.
.	.	.	8B-\	-dzien	che il	.	.	.	.
=99	=99	=99	=99	=99	=99	=99	=99	=99	=99
*	*^	*	*	*	*	*	*	*	*
!	!	!	!	!LO:TX:a:i:t=a tempo	!	!	!	!	!	!
2r	2r	2ryy	.	4c\	wzglę-	mon-	.	1ryy	.	.
.	.	.	.	8c\	-dow,	-do	.	.	.	.
.	.	.	.	16r	.	.	.	.	.	.
!	!	!	!	!LO:TX:a:t=(z wybuchem)	!	!	!LO:DY:a	!	!	!
!	!	!	!	!LO:TX:a:i:t=(con veemenza)	!	!	!	!	!	!
.	.	.	.	16c\	bo	ap-	f	.	.	.
2A-\	4ree	2c\ 2e- 2g-X	sf	4c\	świat	-par-	.	.	.	.
.	4cc/	.	.	8.c\	ca-	-tien	.	.	.	.
.	.	.	.	16c\	-ły	a	.	.	.	.
*	*v	*v	*	*	*	*	*	*	*	*
!!LO:LB:g=original	!	!	!	!	!	!	!	!	!
=100	=100	=100	=100	=100	=100	=100	=100	=100	=100
!	!	!	!LO:TX:a:B:t=Allegro.	!	!	!	!	!	!
4.D-\ 4.A-	4.d-/ 4.f 4.dd-	ff	[4d-\	wasz!	voi.	.	1ryy	.	.
.	.	.	8d-\]	.	.	.	.	.	.
!	!	!	!LO:TX:a:t=(powsciaga się)	!	!	!	!	!	!
!	!	!	!LO:TX:a:i:t=(si raffrena)	!	!	!	!	!	!
8D-\ 8G-X 8B--	8d-^/ 8g-X 8b--	.	8r	.	.	.	.	.	.
!	!	!LO:HP:a:t=dimin.	!	!	!	!	!	!	!
8D-\L 8A-	8c-X^/L 8f 8a-	>	2r	.	.	.	.	.	.
8D-\ 8B--X	8e--^/ 8g-	.	.	.	.	.	.	.	.
8D-\ 8A-	8d-^/ 8f	.	.	.	.	.	.	.	.
8D-\J 8G-	8B--^/J 8d-	.	.	.	.	.	.	.	.
=101	=101	=101	=101	=101	=101	=101	=101	=101	=101
!	!	!	!LO:TX:a:B:t=Recit.	!	!	!	!	!	!
4D-\ 4F	4A-/ 4d-	.	4r	.	.	.	1ryy	.	.
*	*	*	*clefG2	*	*	*	*	*	*
!	!LO:TX:b:B:t=Recit.	!	!LO:TX:a:t=Neala.	!	!	!	!	!	!
!	!	!	!LO:TX:a:i:t=Neala.	!	!	!	!	!	!
4r	4r	.	8.a-/	Nie-	In-	.	.	.	.
.	.	.	16g-X/	-szczę-	-fe-	.	.	.	.
2r	2r	.	4g-/	-śli-	-li-	.	.	.	.
.	.	.	8f/	-wy!	-ce!	.	.	.	.
!	!	!	!LO:TX:a:t=Dżares. (z ironija)	!	!	!	!	!	!
!	!	!	!LO:TX:a:i:t=Djares. (con ironia)	!	!	!	!	!	!
.	.	.	16r	.	.	.	.	.	.
*	*	*	*clefF4	*	*	*	*	*	*
.	.	.	16F\	To	O-	.	.	.	.
=102	=102	=102	=102	=102	=102	=102	=102	=102	=102
!	!	!	!	!	!	!LO:DY:a	!	!	!
1r	1r	.	4F\	po-	-gnun	p	1ryy	.	.
.	.	.	8G-X\	-znać	se	.	.	.	.
.	.	.	8A-\	mo-	n'av-	.	.	.	.
.	.	.	4A-\	-że-	-ve-	.	.	.	.
.	.	.	8D-\	-cie!!	-de!	.	.	.	.
.	.	.	8r	.	.	.	.	.	.
!!LO:REH:t=83
=103	=103	=103	=103	=103	=103	=103	=103	=103	=103
*	*^	*	*	*	*	*	*	*	*
!	!LO:TX:b:i:t=dol.	!	!	!	!	!	!	!	!	!
!	!LO:TX:a:i:t=a tempo moderato	!	!	!	!	!	!	!	!	!
8D-\	(4cc-X/	1f	pp	2r	.	.	.	1ryy	.	.
4D-\	.	.	.	.	.	.	.	.	.	.
.	8.b-/L	.	.	.	.	.	.	.	.	.
4D-\	.	.	.	.	.	.	.	.	.	.
.	16a-/Jk)	.	.	.	.	.	.	.	.	.
.	(4a-/	.	.	8r	.	.	.	.	.	.
*	*	*	*	*clefG2	*	*	*	*	*	*
!	!	!	!	!LO:TX:a:t=Ratef.	!	!	!	!	!	!
!	!	!	!	!LO:TX:a:i:t=Ratef.	!	!	!	!	!	!
4D-\	.	.	.	8a-/	I	Che	.	.	.	.
.	8b-/L	.	.	8b-\	cze-	vai	.	.	.	.
[<8D-\	8cc-/J	.	.	8cc-X\	-go	cer	.	.	.	.
*	*	*	*	*	*	*	*	*clefG2	*	*
!!LO:LB:g=original	!	!	!	!	!	!	!	!	!	!
=104	=104	=104	=104	=104	=104	=104	=104	=104	=104	=104
*^	*	*	*	*	*	*	*	*	*	*
(2A-/	8D-\]	1dd-)	(2.f-X\	.	1ryy	.	.	.	4dd-\	szu-	can-
.	4D-\	.	.	.	.	.	.	.	.	.	.
.	.	.	.	.	.	.	.	.	4d-/	-kasz?	-do?
.	4D-\	.	.	.	.	.	.	.	.	.	.
2Gn/)	.	.	.	.	.	.	.	.	2r	.	.
.	4D-\	.	.	.	.	.	.	.	.	.	.
.	.	.	8.e-\L	.	.	.	.	.	.	.	.
.	8D-\	.	.	.	.	.	.	.	.	.	.
.	.	.	16f-\Jk)	.	.	.	.	.	.	.	.
*	*	*	*	*	*	*	*	*	*clefF4	*	*
=105	=105	=105	=105	=105	=105	=105	=105	=105	=105	=105	=105
*	*	*	*	*	*	*	*	*	*^	*	*
!	!	!	!	!	!	!	!	!	!LO:TX:a:t=Dżares.	!	!	!
!	!	!	!	!	!	!	!	!	!LO:TX:a:i:t=Dżares.	!	!	!
1G	8D-\	(4dd-/	1e-	.	1ryy	.	.	.	4B-/	2B-\	SKar-	Il
.	4D-\	.	.	.	.	.	.	.	.	.	.	.
.	.	8.ccn/L	.	.	.	.	.	.	8B-/	.	.	te
.	4D-\	.	.	.	.	.	.	.	8E-/	.	-bu	sor.
.	.	16b-/Jk)	.	.	.	.	.	.	.	.	.	.
*	*	*	*	*	*	*	*	*	*clefG2	*	*	*
!	!	!	!	!	!	!	!	!	!LO:TX:a:B:t=Recit.	!	!	!
!	!	!	!	!	!	!	!	!	!LO:TX:a:t=Ratef.	!	!	!
!	!	!	!	!	!	!	!	!	!LO:TX:a:i:t=Ratef.	!	!	!
.	.	(4b-/	.	.	.	.	.	.	8b-\	2ryy	A	O-
.	4D-\	.	.	.	.	.	.	.	4ccn\	.	gdzież	-ve
.	.	8cc/L	.	.	.	.	.	.	.	.	.	.
.	8D-\	8dd-/J)	.	.	.	.	.	.	8dd-\	.	on	si
*v	*v	*	*	*	*	*	*	*	*v	*v	*	*
=106	=106	=106	=106	=106	=106	=106	=106	=106	=106	=106
8C\ 8E- 8A-	1ee-	(4e-\	.	1ryy	.	.	.	4ee-\	le-	ce-
4C\ 4E- 4A-	.	.	.	.	.	.	.	.	.	.
.	.	8f\L	.	.	.	.	.	8e-/	-ży?	-la?
*	*	*	*	*	*	*	*	*clefF4	*	*
!	!	!	!	!	!	!	!	!LO:TX:a:t=Dżares. (odpowiadając bezmyslnie)	!	!
!	!	!	!	!	!	!	!	!LO:TX:a:i:t=Djares. (rispondendo macchinalmente)	!	!
4C\ 4E-	.	8g\J	.	.	.	.	.	8E-\	To	V'e
.	.	4a-\	.	.	.	.	.	8E-\	je-	so-
4C\ 4E- 4A-	.	.	.	.	.	.	.	8E-\	-den	-lo un
.	.	8b-\L	.	.	.	.	.	8E-\	tyl-	uo-
8C\ 8E-	.	8cc\J)	.	.	.	.	.	8E-\	-ko	-mo
=107	=107	=107	=107	=107	=107	=107	=107	=107	=107	=107
8BB-\ 8E- 8G	(4.ee-/	2dd-\	.	1ryy	.	.	.	8E-\	czło-	che
4BB-\ 4E- 4G	.	.	.	.	.	.	.	8E-\	-wiek	lo
.	.	.	.	.	.	.	.	4E-\	wie.	sa.
4BB-\ 4E- 4G	8ff/	.	.	.	.	.	.	.	.	.
*	*	*	*	*	*	*	*	*clefG2	*	*
!	!	!	!	!	!	!	!	!LO:TX:a:t=Neala.	!	!
!	!	!	!	!	!	!	!	!LO:TX:a:i:t=Neala.	!	!
.	4gg/	2dd-\	.	.	.	.	.	4ee-\	Któż	E
4BB-\ 4E- 4B-	.	.	.	.	.	.	.	.	.	.
.	8aa-/L	.	.	.	.	.	.	8cc\	jest	chie
8BB-\ 8G	8bb-/J)	.	.	.	.	.	.	8b-\	ten	co
!!LO:PB:g=original	!	!	!	!	!	!	!	!	!	!
=108	=108	=108	=108	=108	=108	=108	=108	=108	=108	=108
8AA-\ 8A-	4ryy	4cc\ 4ccc	.	1ryy	.	.	.	8a-/	czło-	stu-
4AA-/ 4E-	.	.	.	.	.	.	.	8cc\	-wiek?	-i?
.	(8d-/L	4ryy	.	.	.	.	.	8r	.	.
*	*	*	*	*	*	*	*	*clefF4	*	*
!	!	!	!	!	!	!	!	!LO:TX:a:t=Dżares.	!	!
!	!	!	!	!	!	!	!	!LO:TX:a:i:t=Dżares.	!	!
4AA-/ 4E-	8dn/J	.	.	.	.	.	.	8c\	Wód	Il
.	4e-/)	4ryy	.	.	.	.	.	4c\	wa-	som-
4AA-/ 4C	.	.	.	.	.	.	.	.	.	.
.	4ee-/	(8f\L	.	.	.	.	.	8c\	-szych	-mo
8A-\ 8c	.	8f#X\J)	.	.	.	.	.	8c\	ry-	guer-
=109	=109	=109	=109	=109	=109	=109	=109	=109	=109	=109
8G\ 8B- 8c	(4een/	2.g\	.	1ryy	.	.	.	4c\	-ce-	-rie-
4G\ 4B- 4c	.	.	.	.	.	.	.	.	.	.
.	8ff/L	.	.	.	.	.	.	8C/	-rzy.	-ro.
*	*	*	*	*	*	*	*	*clefG2	*	*
8G\ 8B- 8c	8gg/J)	.	.	.	.	.	.	16r	.	.
!	!	!	!	!	!	!	!	!LO:TX:a:t=Neala.	!	!
!	!	!	!	!	!	!	!	!LO:TX:a:i:t=Neala.	!	!
.	.	.	.	.	.	.	.	16cc\	I-	I-
8C\ 8B- 8c	(4gg/	.	.	.	.	.	.	8cc\	-da-	-da-
4B-\ 4c 4en	.	.	.	.	.	.	.	8cc\	-mor?	-mor?
.	8aa-/L	4cc\	.	.	.	.	.	8r	.	.
*	*	*	*	*	*	*	*	*clefF4	*	*
!	!	!	!	!	!	!	!	!LO:TX:a:t=Dżares.	!	!
!	!	!	!	!	!	!	!	!LO:TX:a:i:t=Dżares.	!	!
8G\ 8c 8e	8bb-/J)	.	.	.	.	.	.	8c\	I-	I-
*	*v	*v	*	*	*	*	*	*	*	*
=110	=110	=110	=110	=110	=110	=110	=110	=110	=110
!	!	!	!	!	!	!	!LO:TX:a:i:t=con anima	!	!
(8FF/L	([2dd-\ [>2ff [2aa- 2fff	pp	1ryy	.	.	.	(2d-\	-da-	-da-
16C/L	.	.	.	.	.	.	.	.	.
16F/J	.	.	.	.	.	.	.	.	.
8A-/	.	.	.	.	.	.	.	.	.
8c/J)	.	.	.	.	.	.	.	.	.
8f\L	8dd-\L] 8ff] 8aa-] 8ddd-	.	.	.	.	.	8d-\L	.	.
8A-\J 8c	8cc\ 8ccc	.	.	.	.	.	8c\J	.	.
8F\L	8a-\ 8aa-	.	.	.	.	.	8A-\)	-mor!	-mor!
8A-\J 8c	8f\J) 8ff	.	.	.	.	.	8F\	I	I
*	*	*	*clefF4	*	*	*	*	*	*
!!LO:LB:g=original	!	!	!	!	!	!	!	!	!
=111	=111	=111	=111	=111	=111	=111	=111	=111	=111
(8BB-\L	([2g\ [2dd- [2gg	.	[2G^\	da-	da-	.	1ryy	.	.
8F\	.	.	.	.	.	.	.	.	.
8B-\	.	.	.	.	.	.	.	.	.
8d-\J)	.	.	.	.	.	.	.	.	.
8f\	8g\L] 8dd-] 8gg]	.	8G\L]	.	.	.	.	.	.
(8B-\L 8d-	8f\ 8ff	.	8F\J	.	.	.	.	.	.
8F\	8dd-\	.	8B-\	-mor!	-mor!	.	.	.	.
8B-\J) 8d-	8b-\J)	.	8r	.	.	.	.	.	.
=112	=112	=112	=112	=112	=112	=112	=112	=112	=112
8c\L	([4a-/	.	4r	.	.	.	1ryy	.	.
8C\J	.	.	.	.	.	.	.	.	.
4A-^\ 4c	16a-/LL]	.	8.A-\	więc	ei	.	.	.	.
.	16en/	.	.	.	.	.	.	.	.
.	16f/	.	.	.	.	.	.	.	.
.	16dd-/JJ)	.	16A-\	i	si	.	.	.	.
8r	([4cc^\	.	4c\	on	no-	.	.	.	.
8C/	.	.	.	.	.	.	.	.	.
[4A-^\ [4c [4f	16cc\LL]	.	8.F\	tak	-ma	.	.	.	.
.	16b-\	.	.	.	.	.	.	.	.
.	16a-\	.	.	.	.	.	.	.	.
.	16ff\JJ)	.	16A-\	się	co-	.	.	.	.
=113||	=113||	=113||	=113||	=113||	=113||	=113||	=113||	=113||	=113||
*M3/8	*M3/8	*	*M3/8	*	*	*	*M3/8	*	*
!	!LO:TX:a:t=Fl. e Q	!	!LO:TX:a:B:t=Tempo I.	!	!	!	!	!	!
4.A-\] 4.c] 4.f]	4.cc\	ppp	4C/	zwie?	-si.	.	4.ryy	.	.
.	.	.	8r	.	.	.	.	.	.
=114	=114	=114	=114	=114	=114	=114	=114	=114	=114
[4.c\	[4.f/ 4.a- 4.cc	.	4.r	.	.	.	4.ryy	.	.
=115	=115	=115	=115	=115	=115	=115	=115	=115	=115
4.c\_	4.f/_ 4.a- 4.cc	.	4.r	.	.	.	4.ryy	.	.
=116	=116	=116	=116	=116	=116	=116	=116	=116	=116
!	!	!	!	!	!	!LO:DY:a	!	!	!
4.c\]	4.f/] 4.a- 4.cc	.	8F\	Z ros-	Pri-	p	4.ryy	.	.
.	.	.	8F\	-pa-	-vo	.	.	.	.
.	.	.	8G\	-czy	di	.	.	.	.
=117	=117	=117	=117	=117	=117	=117	=117	=117	=117
4.r	4.f/ 4.a- 4.cc	.	8.A-\	sza-	spe-	.	4.ryy	.	.
.	.	.	16A-\	-łem	-me,	.	.	.	.
.	.	.	8A-\	Co	lo	.	.	.	.
!!LO:LB:g=original	!	!	!	!	!	!	!	!	!
=118	=118	=118	=118	=118	=118	=118	=118	=118	=118
4.r	4.f/ 4.a- 4.bn	.	8A-\	w gro-	cer-	.	4.ryy	.	.
.	.	.	8G\	-bie	-co	.	.	.	.
.	.	.	8F\	ma	tut-	.	.	.	.
=119	=119	=119	=119	=119	=119	=119	=119	=119	=119
4.r	4.f/ 4.a- 4.cc	.	4.A-\	kres,	-tor.	.	4.ryy	.	.
=120	=120	=120	=120	=120	=120	=120	=120	=120	=120
(4.d-\	4.f/ 4.a- 4.bn	.	8F\	Skar-	San-	.	4.ryy	.	.
.	.	.	8F\	-bu	-gui-	.	.	.	.
.	.	.	8G\	szu-	-na e	.	.	.	.
=121	=121	=121	=121	=121	=121	=121	=121	=121	=121
4.c\)	4.f/ 4.a- 4.cc	.	8A-\	-ka-	ge-	.	4.ryy	.	.
.	.	.	16A-\LL	-łem	-me	.	.	.	.
.	.	.	16B-\JJ	.	.	.	.	.	.
.	.	.	[8c\	śród	l'af-	.	.	.	.
=122	=122	=122	=122	=122	=122	=122	=122	=122	=122
4.c\	4.f/ 4.a- 4.cc	.	8c\]	.	.	.	4.ryy	.	.
.	.	.	8A-\	ję-	-flit-	.	.	.	.
.	.	.	8F\	-ków,	-to	.	.	.	.
=123	=123	=123	=123	=123	=123	=123	=123	=123	=123
*	*^	*	*	*	*	*	*	*	*
4.c\	4.g/ 4.cc	(4f\	.	4.G\	lez,	cor.	.	4.ryy	.	.
.	.	8en\)	.	.	.	.	.	.	.	.
*	*v	*v	*	*	*	*	*	*	*	*
=124	=124	=124	=124	=124	=124	=124	=124	=124	=124
4.F\	4.f/ 4.a- 4.cc	.	8F\	Aż	O-	.	4.ryy	.	.
.	.	.	8A-\	gdzie	-vun-	.	.	.	.
.	.	.	8B-\	stę-	-que il	.	.	.	.
!!LO:LB:g=original	!	!	!	!	!	!	!	!	!
=125	=125	=125	=125	=125	=125	=125	=125	=125	=125
!	!	!	!LO:N:vis=8	!	!	!	!	!	!
4.F\	4.en/ 4.g 4.cc	.	8.c\	-sknio-	guar-	.	4.ryy	.	.
.	.	.	16c\	-ny	-do	.	.	.	.
.	.	.	8c\	O-	s'ar-	.	.	.	.
=126	=126	=126	=126	=126	=126	=126	=126	=126	=126
4.F\	4.e-X/ 4.g-X 4.cc	.	8c\	-bró-	-re-	.	4.ryy	.	.
.	.	.	8B-\	-ci	-sti a	.	.	.	.
.	.	.	8An\	się	mi-	.	.	.	.
=127	=127	=127	=127	=127	=127	=127	=127	=127	=127
4.F\	4.dn/ 4.f 4.b-	.	4.B-\	wzrok,	-rar,	.	4.ryy	.	.
=128	=128	=128	=128	=128	=128	=128	=128	=128	=128
4.F\	4.d-X/ 4.f 4.b-	.	8F\	W da-	er-	.	4.ryy	.	.
.	.	.	8F\	-le-	-ror	.	.	.	.
.	.	.	8G\	-kie	ma-	.	.	.	.
=129	=129	=129	=129	=129	=129	=129	=129	=129	=129
(4.F\	(>4.c/ 4.f 4.a-	.	8.A-\	stro-	-liar-	.	4.ryy	.	.
.	.	.	16G\	-ny	-do	.	.	.	.
.	.	.	8F\	Po-	mel	.	.	.	.
=130	=130	=130	=130	=130	=130	=130	=130	=130	=130
*	*	*	*^	*	*	*	*	*	*
!	!LO:TX:i:b:t=rall.	!	!LO:TX:a:i:t=rall.	!	!	!	!	!	!	!
4.D-\	4.d-/ 4.f 4.a-	.	8d-/	8d-\L	-wiod-	fa	.	4.ryy	.	.
.	.	.	8c/	8c\J	.	rav-	.	.	.	.
.	.	.	8Bn/	8ryy	-łem	-vi-	.	.	.	.
*	*	*	*v	*v	*	*	*	*	*	*
=131	=131	=131	=131	=131	=131	=131	=131	=131	=131
4.AA-/	4.c/ 4.f 4.cc	.	[4.c\	krok.	-sar...	.	4.ryy	.	.
=132	=132	=132	=132	=132	=132	=132	=132	=132	=132
4.C/)	4.c/) 4.en 4.g	.	8c\]	.	.	.	4.ryy	.	.
.	.	.	8r	.	.	.	.	.	.
.	.	.	8c\	Lecz	In	.	.	.	.
=133||	=133||	=133||	=133||	=133||	=133||	=133||	=133||	=133||	=133||
*k[b-enandn]	*k[b-enandn]	*	*k[b-enandn]	*	*	*	*k[b-enandn]	*	*
4.ryy	4.ryy	.	4.ryy	.	.	.	4.ryy	.	.
=	=	=	=	=	=	=	=	=	=
*-	*-	*-	*-	*-	*-	*-	*-	*-	*-
!!!system-decoration: s1,s2{(s3,s4)}
!!!RDF**kern: > = above
!!!RDF**kern: < = below
!!!RDF**kern: N = linked
!!!RDF**kern: NN = linked
!!!ENC: Andrzej Gręziak
!!!END: 2022-09-01
!!!ENC: Jan Barakat
!!!END: 2022-10-12
!!!YEC: Copyright 2022 Narodowy Instytut Fryderyka Chopina (https://polishscores.org)
!!!YEM: License CC-BY-4.0 (https://creativecommons.org/licenses/by/4.0)
